public/images/icons/adherent_menu/default/documents.svg

<svg xmlns="http://www.w3.org/2000/svg" width="20" height="20" viewBox="0 0 20 20"><path fill="#7B889B" d="M4,5 L3.999,18 L14,18 L14,20 L3,20 C2.48716416,20 2.06449284,19.6139598 2.00672773,19.1166211 L2,19 L2,5 L4,5 Z M13.4799942,1 C13.7064257,1 13.9247334,1.0767846 14.1002977,1.21563234 L14.2002301,1.30627078 L17.7202359,4.96077253 C17.8698081,5.11605973 17.9643739,5.31461965 17.9917411,5.52621916 L18,5.65450175 L18,16 C18,16.5128358 17.6139598,16.9355072 17.1166211,16.9932723 L17,17 L7,17 C6.48716416,17 6.06449284,16.6139598 6.00672773,16.1166211 L6,16 L6,2 C6,1.48716416 6.38604019,1.06449284 6.88337887,1.00672773 L7,1 L13.4799942,1 Z M12,2.999 L7.999,3 L7.999,15 L15.999,15 L15.999,6.999 L13,7 C12.4871642,7 12.0644928,6.61395981 12.0067277,6.11662113 L12,6 L12,2.999 Z"/></svg>

<svg viewBox="0 0 20 20"><path fill="#7B889B" d="M4 5l-.001 13H14v2H3a1 1 0 01-.993-.883L2 19V5h2zm9.48-4a1 1 0 01.62.216l.1.09 3.52 3.655a1 1 0 01.272.565l.008.129V16a1 1 0 01-.883.993L17 17H7a1 1 0 01-.993-.883L6 16V2a1 1 0 01.883-.993L7 1h6.48zM12 2.999L7.999 3v12h8V6.999L13 7a1 1 0 01-.993-.883L12 6V2.999z"/></svg>
